images/ecosystem-keyvisual.svg

<svg width="415" height="545" fill="none" xmlns="http://www.w3.org/2000/svg"><rect x="93" y="53" width="224" height="224" rx="112" fill="#fff" stroke="#EAFAEF" stroke-width="10"/><circle cx="147.169" cy="9.951" r="7" transform="rotate(-20 147.169 9.95)" fill="#09D9B9"/><circle cx="260.036" cy="320.049" r="7" transform="rotate(-20 260.036 320.049)" fill="#09D9B9"/><circle cx="97.543" cy="38.603" r="7" transform="rotate(-40 97.543 38.603)" fill="#09D9B9"/><circle cx="309.662" cy="291.397" r="7" transform="rotate(-40 309.662 291.397)" fill="#09D9B9"/><circle cx="60.708" cy="82.5" r="7" transform="rotate(-60 60.708 82.5)" fill="#09D9B9"/><circle cx="346.497" cy="247.5" r="7" transform="rotate(-60 346.497 247.5)" fill="#09D9B9"/><circle cx="41.109" cy="136.348" r="7" transform="rotate(-80 41.11 136.348)" fill="#09D9B9"/><circle cx="366.096" cy="193.652" r="7" transform="rotate(-80 366.096 193.652)" fill="#09D9B9"/><circle cx="41.109" cy="193.652" r="7" transform="rotate(-100 41.11 193.652)" fill="#09D9B9"/><circle cx="366.096" cy="136.348" r="8.5" transform="rotate(-100 366.096 136.348)" fill="#09D9B9" stroke="#fff" stroke-width="3"/><circle cx="60.708" cy="247.5" r="7" transform="rotate(-120 60.708 247.5)" fill="#09D9B9"/><circle cx="346.497" cy="82.5" r="7" transform="rotate(-120 346.497 82.5)" fill="#09D9B9"/><g filter="url(#filter0_d)"><g filter="url(#filter1_d)"><rect x="90" y="99" width="234.062" height="351.092" rx="10" fill="#000"/><rect x="90" y="99" width="234.062" height="351.092" rx="10" fill="url(#paint0_linear)" fill-opacity=".5"/></g><g clip-path="url(#clip0)" fill="#fff"><path d="M180.802 156.53l-3.32-4.798-.996 1.158v3.64h-2.988v-16.795h2.988v9.432h.166l3.653-4.303h3.486l-4.316 4.965 4.565 6.701h-3.238z"/><path d="M189.186 156.695c-1.162 0-2.158-.248-2.988-.744a5.328 5.328 0 0 1-1.992-2.069c-.498-.91-.664-1.903-.664-3.144 0-1.158.249-2.234.664-3.144a4.82 4.82 0 0 1 1.909-2.151 5.75 5.75 0 0 1 2.988-.827c.996 0 1.909.248 2.656.662.83.413 1.411 1.075 1.909 1.902.498.828.664 1.903.664 3.144v1.241h-7.885c.083.828.415 1.572.83 2.069.498.496 1.079.745 1.992.745.664 0 1.245-.166 1.577-.497.332-.331.581-.662.747-1.158l2.656.744c-.166.497-.415 1.076-.83 1.572a4.365 4.365 0 0 1-1.66 1.242 7.987 7.987 0 0 1-2.573.413zm-.166-9.597c-.664 0-1.245.248-1.66.662-.415.413-.747.992-.913 1.82h5.063c0-.662-.249-1.241-.664-1.738-.498-.496-1.079-.744-1.826-.744zm9.379 9.928l.249-.579-4.234-11.583h3.071l2.574 7.694h.166l2.573-7.694h3.071l-4.981 13.403c-.166.414-.415.91-.746 1.324-.332.414-.747.827-1.245 1.075-.498.249-1.163.414-1.91.414-.332 0-.581 0-.912-.083-.332-.082-.498-.165-.747-.248l.664-2.316c.746.165 1.244.165 1.576-.083.249-.166.582-.662.831-1.324zm17.845-8.439l-2.739.414c-.166-.58-.415-.993-.747-1.324-.332-.331-.83-.497-1.494-.497-.913 0-1.494.331-1.992.993-.415.662-.664 1.49-.664 2.565 0 1.076.249 1.986.664 2.648.415.661 1.079.992 1.992.992.581 0 1.079-.165 1.411-.496.332-.331.664-.745.747-1.241l2.739.414c-.249 1.075-.83 1.985-1.66 2.73a5.492 5.492 0 0 1-3.32 1.076c-1.162 0-2.075-.249-2.905-.745-.83-.497-1.411-1.241-1.909-2.151a7.603 7.603 0 0 1-.664-3.144c0-1.158.249-2.234.664-3.144.415-.91 1.079-1.572 1.909-2.069.83-.496 1.743-.744 2.905-.744 1.328 0 2.407.331 3.32 1.075.996.497 1.577 1.49 1.743 2.648zm7.719 7.943v-1.324h-.166c-.166.331-.498.744-.996 1.075-.498.331-1.162.497-1.992.497a4.94 4.94 0 0 1-1.909-.414c-.581-.248-.996-.662-1.411-1.158-.332-.497-.498-1.159-.498-1.903 0-1.158.415-1.986 1.245-2.565.83-.579 1.992-.91 3.486-1.075.332 0 .664-.083.996-.083.332 0 .581-.083.83-.166.166-.082.332-.248.332-.413v-.166c0-.496-.166-.91-.498-1.241a2.044 2.044 0 0 0-1.245-.414c-.581 0-.996.166-1.411.414-.415.248-.581.579-.747.993l-2.739-.414c.249-1.075.83-1.903 1.743-2.482.913-.579 1.992-.827 3.237-.827.747 0 1.494.165 2.241.413a4.247 4.247 0 0 1 1.743 1.241c.415.58.664 1.407.664 2.317v7.86h-2.905v-.165zm-.166-3.889v-1.572c-.083.083-.249.166-.415.248-.249.083-.498.083-.747.166a2.086 2.086 0 0 1-.664.082c-.664.083-1.245.249-1.577.497-.332.248-.498.662-.498 1.158 0 .414.166.745.415.993.332.248.664.331 1.162.331.664 0 1.162-.166 1.66-.579.498-.414.664-.828.664-1.324zm12.035-7.528l-.913 2.564c-.083-.082-.249-.082-.415-.165-.166-.083-.415-.083-.664-.083-.498 0-.913.083-1.245.331-.332.248-.664.579-.83.91-.166.414-.332.827-.332 1.241v6.619h-2.988v-11.666h2.905v1.655h.166c.166-.579.498-1.076.996-1.324a2.999 2.999 0 0 1 1.66-.496c.332 0 .581 0 .913.083.332.082.581.165.747.331zm10.209 11.417h-2.905v-1.406h-.166c-.166.413-.498.744-.996 1.075-.498.331-1.079.497-1.909.497-.913 0-1.66-.249-2.324-.662a5.255 5.255 0 0 1-1.66-2.069c-.415-.91-.581-1.986-.581-3.309 0-1.324.249-2.4.664-3.31.415-.91.996-1.572 1.66-1.985.747-.414 1.494-.662 2.324-.662.747 0 1.411.165 1.909.496.498.331.83.662.996 1.076h.083v-5.295h2.905v15.554zm-7.802-5.874c0 1.075.249 1.985.664 2.647.415.662 1.079.993 1.992.993.581 0 1.079-.165 1.494-.496.332-.331.664-.745.83-1.324a6.43 6.43 0 0 0 .249-1.82c0-.993-.166-1.903-.581-2.565-.415-.662-.996-.993-1.909-.993s-1.494.331-1.992.993c-.498.662-.747 1.489-.747 2.565zm-63.329-8.191c-3.818 0-6.889-3.144-6.889-6.95a6.861 6.861 0 0 1 6.889-6.867 6.861 6.861 0 0 1 6.889 6.867c.083 3.806-3.071 6.95-6.889 6.95zm0-11.087a4.155 4.155 0 0 0-4.15 4.137c0 2.317 1.909 4.137 4.15 4.137a4.155 4.155 0 0 0 4.15-4.137c.083-2.234-1.826-4.137-4.15-4.137z"/></g><g clip-path="url(#clip1)" fill="#fff" fill-opacity=".5"><path d="M224.21 363.997a1.758 1.758 0 0 0-2.483 2.489 7.904 7.904 0 0 1 0 11.174 1.751 1.751 0 0 0-.382 1.914 1.752 1.752 0 0 0 1.622 1.086 1.767 1.767 0 0 0 1.243-.513 11.416 11.416 0 0 0 0-16.138v-.012z"/><path d="M227.006 362.768a13.165 13.165 0 0 1 0 18.608 1.752 1.752 0 0 0-.405 1.927 1.764 1.764 0 0 0 .96.96 1.744 1.744 0 0 0 1.357-.012c.215-.092.408-.225.57-.393a16.674 16.674 0 0 0 0-23.585 1.758 1.758 0 0 0-3 1.252c.001.467.187.914.518 1.243z"/></g><rect x="160.999" y="346.325" width="46.812" height="49.213" rx="5" fill="#EEC458"/><rect x="160.999" y="346.325" width="46.812" height="49.213" rx="5" fill="url(#paint1_linear)" fill-opacity=".6"/><mask id="a" maskUnits="userSpaceOnUse" x="160" y="346" width="48" height="50"><rect x="160.999" y="346.325" width="46.812" height="49.213" rx="5" fill="#EEC458"/><rect x="160.999" y="346.325" width="46.812" height="49.213" rx="5" fill="url(#paint2_linear)" fill-opacity=".6"/></mask><g mask="url(#a)"><path stroke="#C4A145" stroke-width="4" d="M140.373 360.808h38.131v49.054h-38.131zm55.394-22.626h38.131V400.5h-38.131z"/><path fill="#C4A145" d="M195.328 360.369h13.264v3.121h-13.264z"/><path fill="#C4A145" d="M195.328 360.369h13.264v3.121h-13.264z"/><path fill="#C4A145" d="M195.328 360.369h13.264v3.121h-13.264z"/><path fill="#C4A145" d="M195.328 360.369h13.264v3.121h-13.264zm0 17.164h13.264v3.121h-13.264z"/><path fill="#C4A145" d="M195.328 377.533h13.264v3.121h-13.264z"/><path fill="#C4A145" d="M195.328 377.533h13.264v3.121h-13.264z"/><path fill="#C4A145" d="M195.328 377.533h13.264v3.121h-13.264zm-39.011-7.022h22.626v3.121h-22.626z"/><path fill="#C4A145" d="M156.317 370.511h22.626v3.121h-22.626z"/><path fill="#C4A145" d="M156.317 370.511h22.626v3.121h-22.626z"/><path fill="#C4A145" d="M156.317 370.511h22.626v3.121h-22.626zm0 12.484h22.626v3.121h-22.626z"/><path fill="#C4A145" d="M156.317 382.995h22.626v3.121h-22.626z"/><path fill="#C4A145" d="M156.317 382.995h22.626v3.121h-22.626z"/><path fill="#C4A145" d="M156.317 382.995h22.626v3.121h-22.626z"/></g></g><defs><filter id="filter0_d" x="0" y="13" width="414.062" height="531.092" filterUnits="userSpaceOnUse" color-interpolation-filters="sRGB"><feFlood flood-opacity="0" result="BackgroundImageFix"/><feColorMatrix in="SourceAlpha" values="0 0 0 0 0 0 0 0 0 0 0 0 0 0 0 0 0 0 127 0"/><feOffset dy="4"/><feGaussianBlur stdDeviation="45"/><feColorMatrix values="0 0 0 0 0 0 0 0 0 0 0 0 0 0 0 0 0 0 0.2 0"/><feBlend in2="BackgroundImageFix" result="effect1_dropShadow"/><feBlend in="SourceGraphic" in2="effect1_dropShadow" result="shape"/></filter><filter id="filter1_d" x="70" y="83" width="274.062" height="391.092" filterUnits="userSpaceOnUse" color-interpolation-filters="sRGB"><feFlood flood-opacity="0" result="BackgroundImageFix"/><feColorMatrix in="SourceAlpha" values="0 0 0 0 0 0 0 0 0 0 0 0 0 0 0 0 0 0 127 0"/><feOffset dy="4"/><feGaussianBlur stdDeviation="10"/><feColorMatrix values="0 0 0 0 0 0 0 0 0 0 0 0 0 0 0 0 0 0 0.25 0"/><feBlend in2="BackgroundImageFix" result="effect1_dropShadow"/><feBlend in="SourceGraphic" in2="effect1_dropShadow" result="shape"/></filter><linearGradient id="paint0_linear" x1="17.441" y1="400.939" x2="324.062" y2="-71.865" gradientUnits="userSpaceOnUse"><stop/><stop offset="1" stop-color="#fff"/></linearGradient><linearGradient id="paint1_linear" x1="230.697" y1="329.921" x2="165.159" y2="360.987" gradientUnits="userSpaceOnUse"><stop stop-color="#fff"/><stop offset="1" stop-color="#fff" stop-opacity="0"/></linearGradient><linearGradient id="paint2_linear" x1="230.697" y1="329.921" x2="165.159" y2="360.987" gradientUnits="userSpaceOnUse"><stop stop-color="#fff"/><stop offset="1" stop-color="#fff" stop-opacity="0"/></linearGradient><clipPath id="clip0"><path fill="#fff" transform="translate(168.021 128.648)" d="M0 0h78.02v32.798H0z"/></clipPath><clipPath id="clip1"><path fill="#fff" transform="rotate(90 -58.314 292.692)" d="M0 0h42.131v13.305H0z"/></clipPath></defs></svg>

<svg width="415" height="545" viewBox="0 0 415 545" fill="none" xmlns="http://www.w3.org/2000/svg">
<rect x="93" y="53" width="224" height="224" rx="112" fill="white" stroke="#EAFAEF" stroke-width="10"/>
<circle cx="147.169" cy="9.95074" r="7" transform="rotate(-20 147.169 9.95074)" fill="#09D9B9"/>
<circle cx="260.036" cy="320.049" r="7" transform="rotate(-20 260.036 320.049)" fill="#09D9B9"/>
<circle cx="97.5425" cy="38.6027" r="7" transform="rotate(-40 97.5425 38.6027)" fill="#09D9B9"/>
<circle cx="309.662" cy="291.397" r="7" transform="rotate(-40 309.662 291.397)" fill="#09D9B9"/>
<circle cx="60.7083" cy="82.5" r="7" transform="rotate(-60 60.7083 82.5)" fill="#09D9B9"/>
<circle cx="346.497" cy="247.5" r="7" transform="rotate(-60 346.497 247.5)" fill="#09D9B9"/>
<circle cx="41.1092" cy="136.348" r="7" transform="rotate(-80 41.1092 136.348)" fill="#09D9B9"/>
<circle cx="366.096" cy="193.652" r="7" transform="rotate(-80 366.096 193.652)" fill="#09D9B9"/>
<circle cx="41.1092" cy="193.652" r="7" transform="rotate(-100 41.1092 193.652)" fill="#09D9B9"/>
<circle cx="366.096" cy="136.348" r="8.5" transform="rotate(-100 366.096 136.348)" fill="#09D9B9" stroke="white" stroke-width="3"/>
<circle cx="60.7083" cy="247.5" r="7" transform="rotate(-120 60.7083 247.5)" fill="#09D9B9"/>
<circle cx="346.497" cy="82.5001" r="7" transform="rotate(-120 346.497 82.5001)" fill="#09D9B9"/>
<g filter="url(#filter0_d)">
<g filter="url(#filter1_d)">
<rect x="90" y="99" width="234.062" height="351.092" rx="10" fill="black"/>
<rect x="90" y="99" width="234.062" height="351.092" rx="10" fill="url(#paint0_linear)" fill-opacity="0.5"/>
</g>
<g clip-path="url(#clip0)">
<path d="M180.802 156.53L177.482 151.732L176.486 152.89V156.53H173.498V139.735H176.486V149.167H176.652L180.305 144.864H183.791L179.475 149.829L184.04 156.53H180.802Z" fill="white"/>
<path d="M189.186 156.695C188.024 156.695 187.028 156.447 186.198 155.951C185.368 155.454 184.704 154.792 184.206 153.882C183.708 152.972 183.542 151.979 183.542 150.738C183.542 149.58 183.791 148.504 184.206 147.594C184.621 146.684 185.285 145.939 186.115 145.443C186.945 144.947 187.941 144.616 189.103 144.616C190.099 144.616 191.012 144.864 191.759 145.278C192.589 145.691 193.17 146.353 193.668 147.18C194.166 148.008 194.332 149.083 194.332 150.324V151.565H186.447C186.53 152.393 186.862 153.137 187.277 153.634C187.775 154.13 188.356 154.379 189.269 154.379C189.933 154.379 190.514 154.213 190.846 153.882C191.178 153.551 191.427 153.22 191.593 152.724L194.249 153.468C194.083 153.965 193.834 154.544 193.419 155.04C193.004 155.537 192.506 155.951 191.759 156.282C191.012 156.53 190.182 156.695 189.186 156.695ZM189.02 147.098C188.356 147.098 187.775 147.346 187.36 147.76C186.945 148.173 186.613 148.752 186.447 149.58H191.51C191.51 148.918 191.261 148.339 190.846 147.842C190.348 147.346 189.767 147.098 189.02 147.098Z" fill="white"/>
<path d="M198.399 157.026L198.648 156.447L194.414 144.864H197.485L200.059 152.558H200.225L202.798 144.864H205.869L200.888 158.267C200.722 158.681 200.473 159.177 200.142 159.591C199.81 160.005 199.395 160.418 198.897 160.666C198.399 160.915 197.734 161.08 196.987 161.08C196.655 161.08 196.406 161.08 196.075 160.997C195.743 160.915 195.577 160.832 195.328 160.749L195.992 158.433C196.738 158.598 197.236 158.598 197.568 158.35C197.817 158.184 198.15 157.688 198.399 157.026Z" fill="white"/>
<path d="M216.244 148.587L213.505 149.001C213.339 148.421 213.09 148.008 212.758 147.677C212.426 147.346 211.928 147.18 211.264 147.18C210.351 147.18 209.77 147.511 209.272 148.173C208.857 148.835 208.608 149.663 208.608 150.738C208.608 151.814 208.857 152.724 209.272 153.386C209.687 154.047 210.351 154.378 211.264 154.378C211.845 154.378 212.343 154.213 212.675 153.882C213.007 153.551 213.339 153.137 213.422 152.641L216.161 153.055C215.912 154.13 215.331 155.04 214.501 155.785C213.588 156.447 212.509 156.861 211.181 156.861C210.019 156.861 209.106 156.612 208.276 156.116C207.446 155.619 206.865 154.875 206.367 153.965C205.952 153.055 205.703 151.979 205.703 150.821C205.703 149.663 205.952 148.587 206.367 147.677C206.782 146.767 207.446 146.105 208.276 145.608C209.106 145.112 210.019 144.864 211.181 144.864C212.509 144.864 213.588 145.195 214.501 145.939C215.497 146.436 216.078 147.429 216.244 148.587Z" fill="white"/>
<path d="M223.963 156.53V155.206H223.797C223.631 155.537 223.299 155.95 222.801 156.281C222.303 156.612 221.639 156.778 220.809 156.778C220.145 156.778 219.481 156.612 218.9 156.364C218.319 156.116 217.904 155.702 217.489 155.206C217.157 154.709 216.991 154.047 216.991 153.303C216.991 152.145 217.406 151.317 218.236 150.738C219.066 150.159 220.228 149.828 221.722 149.663C222.054 149.663 222.386 149.58 222.718 149.58C223.05 149.58 223.299 149.497 223.548 149.414C223.714 149.332 223.88 149.166 223.88 149.001V148.835C223.88 148.339 223.714 147.925 223.382 147.594C223.05 147.346 222.635 147.18 222.137 147.18C221.556 147.18 221.141 147.346 220.726 147.594C220.311 147.842 220.145 148.173 219.979 148.587L217.24 148.173C217.489 147.098 218.07 146.27 218.983 145.691C219.896 145.112 220.975 144.864 222.22 144.864C222.967 144.864 223.714 145.029 224.461 145.277C225.125 145.526 225.706 145.939 226.204 146.518C226.619 147.098 226.868 147.925 226.868 148.835V156.695H223.963V156.53ZM223.797 152.641V151.069C223.714 151.152 223.548 151.235 223.382 151.317C223.133 151.4 222.884 151.4 222.635 151.483C222.386 151.565 222.137 151.565 221.971 151.565C221.307 151.648 220.726 151.814 220.394 152.062C220.062 152.31 219.896 152.724 219.896 153.22C219.896 153.634 220.062 153.965 220.311 154.213C220.643 154.461 220.975 154.544 221.473 154.544C222.137 154.544 222.635 154.378 223.133 153.965C223.631 153.551 223.797 153.137 223.797 152.641Z" fill="white"/>
<path d="M235.832 145.113L234.919 147.677C234.836 147.595 234.67 147.595 234.504 147.512C234.338 147.429 234.089 147.429 233.84 147.429C233.342 147.429 232.927 147.512 232.595 147.76C232.263 148.008 231.931 148.339 231.765 148.67C231.599 149.084 231.433 149.497 231.433 149.911V156.53H228.445V144.864H231.35V146.519H231.516C231.682 145.94 232.014 145.443 232.512 145.195C233.01 144.864 233.591 144.699 234.172 144.699C234.504 144.699 234.753 144.699 235.085 144.782C235.417 144.864 235.666 144.947 235.832 145.113Z" fill="white"/>
<path d="M246.041 156.53H243.136V155.124H242.97C242.804 155.537 242.472 155.868 241.974 156.199C241.476 156.53 240.895 156.696 240.065 156.696C239.152 156.696 238.405 156.447 237.741 156.034C237.077 155.537 236.496 154.875 236.081 153.965C235.666 153.055 235.5 151.979 235.5 150.656C235.5 149.332 235.749 148.256 236.164 147.346C236.579 146.436 237.16 145.774 237.824 145.361C238.571 144.947 239.318 144.699 240.148 144.699C240.895 144.699 241.559 144.864 242.057 145.195C242.555 145.526 242.887 145.857 243.053 146.271H243.136V140.976H246.041V156.53ZM238.239 150.656C238.239 151.731 238.488 152.641 238.903 153.303C239.318 153.965 239.982 154.296 240.895 154.296C241.476 154.296 241.974 154.131 242.389 153.8C242.721 153.469 243.053 153.055 243.219 152.476C243.385 151.897 243.468 151.318 243.468 150.656C243.468 149.663 243.302 148.753 242.887 148.091C242.472 147.429 241.891 147.098 240.978 147.098C240.065 147.098 239.484 147.429 238.986 148.091C238.488 148.753 238.239 149.58 238.239 150.656Z" fill="white"/>
<path d="M174.91 142.465C171.092 142.465 168.021 139.321 168.021 135.515C168.021 131.709 171.092 128.648 174.91 128.648C178.728 128.648 181.799 131.709 181.799 135.515C181.882 139.321 178.728 142.465 174.91 142.465ZM174.91 131.378C172.586 131.378 170.76 133.281 170.76 135.515C170.76 137.832 172.669 139.652 174.91 139.652C177.234 139.652 179.06 137.749 179.06 135.515C179.143 133.281 177.234 131.378 174.91 131.378Z" fill="white"/>
</g>
<g clip-path="url(#clip1)">
<path d="M224.21 363.997C223.88 363.668 223.432 363.483 222.966 363.484C222.5 363.484 222.053 363.67 221.724 364C221.395 364.33 221.21 364.778 221.211 365.244C221.212 365.71 221.397 366.157 221.727 366.486C222.461 367.22 223.043 368.091 223.441 369.049C223.838 370.008 224.042 371.035 224.042 372.073C224.042 373.11 223.838 374.138 223.441 375.096C223.043 376.055 222.461 376.926 221.727 377.66C221.564 377.823 221.434 378.016 221.346 378.229C221.257 378.442 221.212 378.671 221.211 378.901C221.211 379.132 221.256 379.361 221.345 379.574C221.433 379.787 221.562 379.981 221.725 380.144C221.888 380.308 222.081 380.437 222.294 380.526C222.508 380.614 222.736 380.66 222.967 380.66C223.197 380.661 223.426 380.615 223.639 380.527C223.852 380.439 224.046 380.31 224.21 380.147C225.269 379.087 226.11 377.829 226.684 376.445C227.257 375.061 227.552 373.577 227.552 372.078C227.552 370.579 227.257 369.096 226.684 367.711C226.11 366.327 225.269 365.069 224.21 364.009L224.21 363.997Z" fill="white" fill-opacity="0.5"/>
<path d="M227.006 362.768C229.472 365.237 230.857 368.583 230.857 372.072C230.857 375.561 229.472 378.907 227.006 381.376C226.838 381.538 226.705 381.732 226.613 381.946C226.521 382.16 226.472 382.39 226.47 382.623C226.468 382.856 226.513 383.088 226.601 383.303C226.689 383.519 226.82 383.715 226.984 383.88C227.149 384.045 227.345 384.175 227.561 384.263C227.777 384.352 228.008 384.396 228.241 384.394C228.474 384.392 228.704 384.343 228.918 384.251C229.133 384.159 229.326 384.026 229.488 383.858C232.616 380.731 234.373 376.489 234.373 372.066C234.373 367.643 232.616 363.401 229.488 360.273C229.158 359.944 228.71 359.76 228.243 359.761C228.012 359.762 227.783 359.808 227.57 359.897C227.357 359.986 227.163 360.116 227 360.28C226.837 360.443 226.708 360.638 226.62 360.851C226.532 361.065 226.487 361.294 226.488 361.525C226.489 361.992 226.675 362.439 227.006 362.768Z" fill="white" fill-opacity="0.5"/>
</g>
<rect x="160.999" y="346.325" width="46.8123" height="49.2129" rx="5" fill="#EEC458"/>
<rect x="160.999" y="346.325" width="46.8123" height="49.2129" rx="5" fill="url(#paint1_linear)" fill-opacity="0.6"/>
<mask id="mask0" mask-type="alpha" maskUnits="userSpaceOnUse" x="160" y="346" width="48" height="50">
<rect x="160.999" y="346.325" width="46.8123" height="49.2129" rx="5" fill="#EEC458"/>
<rect x="160.999" y="346.325" width="46.8123" height="49.2129" rx="5" fill="url(#paint2_linear)" fill-opacity="0.6"/>
</mask>
<g mask="url(#mask0)">
<rect x="140.373" y="360.808" width="38.1311" height="49.054" stroke="#C4A145" stroke-width="4"/>
<rect x="195.767" y="338.182" width="38.1311" height="62.3175" stroke="#C4A145" stroke-width="4"/>
<rect x="195.328" y="360.369" width="13.2635" height="3.12082" fill="#C4A145"/>
<rect x="195.328" y="360.369" width="13.2635" height="3.12082" fill="#C4A145"/>
<rect x="195.328" y="360.369" width="13.2635" height="3.12082" fill="#C4A145"/>
<rect x="195.328" y="360.369" width="13.2635" height="3.12082" fill="#C4A145"/>
<rect x="195.328" y="377.533" width="13.2635" height="3.12082" fill="#C4A145"/>
<rect x="195.328" y="377.533" width="13.2635" height="3.12082" fill="#C4A145"/>
<rect x="195.328" y="377.533" width="13.2635" height="3.12082" fill="#C4A145"/>
<rect x="195.328" y="377.533" width="13.2635" height="3.12082" fill="#C4A145"/>
<rect x="156.317" y="370.511" width="22.6259" height="3.12082" fill="#C4A145"/>
<rect x="156.317" y="370.511" width="22.6259" height="3.12082" fill="#C4A145"/>
<rect x="156.317" y="370.511" width="22.6259" height="3.12082" fill="#C4A145"/>
<rect x="156.317" y="370.511" width="22.6259" height="3.12082" fill="#C4A145"/>
<rect x="156.317" y="382.995" width="22.6259" height="3.12082" fill="#C4A145"/>
<rect x="156.317" y="382.995" width="22.6259" height="3.12082" fill="#C4A145"/>
<rect x="156.317" y="382.995" width="22.6259" height="3.12082" fill="#C4A145"/>
<rect x="156.317" y="382.995" width="22.6259" height="3.12082" fill="#C4A145"/>
</g>
</g>
<defs>
<filter id="filter0_d" x="0" y="13" width="414.062" height="531.092" filterUnits="userSpaceOnUse" color-interpolation-filters="sRGB">
<feFlood flood-opacity="0" result="BackgroundImageFix"/>
<feColorMatrix in="SourceAlpha" type="matrix" values="0 0 0 0 0 0 0 0 0 0 0 0 0 0 0 0 0 0 127 0"/>
<feOffset dy="4"/>
<feGaussianBlur stdDeviation="45"/>
<feColorMatrix type="matrix" values="0 0 0 0 0 0 0 0 0 0 0 0 0 0 0 0 0 0 0.2 0"/>
<feBlend mode="normal" in2="BackgroundImageFix" result="effect1_dropShadow"/>
<feBlend mode="normal" in="SourceGraphic" in2="effect1_dropShadow" result="shape"/>
</filter>
<filter id="filter1_d" x="70" y="83" width="274.062" height="391.092" filterUnits="userSpaceOnUse" color-interpolation-filters="sRGB">
<feFlood flood-opacity="0" result="BackgroundImageFix"/>
<feColorMatrix in="SourceAlpha" type="matrix" values="0 0 0 0 0 0 0 0 0 0 0 0 0 0 0 0 0 0 127 0"/>
<feOffset dy="4"/>
<feGaussianBlur stdDeviation="10"/>
<feColorMatrix type="matrix" values="0 0 0 0 0 0 0 0 0 0 0 0 0 0 0 0 0 0 0.25 0"/>
<feBlend mode="normal" in2="BackgroundImageFix" result="effect1_dropShadow"/>
<feBlend mode="normal" in="SourceGraphic" in2="effect1_dropShadow" result="shape"/>
</filter>
<linearGradient id="paint0_linear" x1="17.4409" y1="400.939" x2="324.062" y2="-71.8649" gradientUnits="userSpaceOnUse">
<stop/>
<stop offset="1" stop-color="white"/>
</linearGradient>
<linearGradient id="paint1_linear" x1="230.697" y1="329.921" x2="165.159" y2="360.987" gradientUnits="userSpaceOnUse">
<stop stop-color="white"/>
<stop offset="1" stop-color="white" stop-opacity="0"/>
</linearGradient>
<linearGradient id="paint2_linear" x1="230.697" y1="329.921" x2="165.159" y2="360.987" gradientUnits="userSpaceOnUse">
<stop stop-color="white"/>
<stop offset="1" stop-color="white" stop-opacity="0"/>
</linearGradient>
<clipPath id="clip0">
<rect width="78.0205" height="32.7984" fill="white" transform="translate(168.021 128.648)"/>
</clipPath>
<clipPath id="clip1">
<rect width="42.1311" height="13.3045" fill="white" transform="translate(234.379 351.006) rotate(90)"/>
</clipPath>
</defs>
</svg>
